packages/core/assets/Icons/add.svg

<svg viewBox="0 0 20 20" fill="none" xmlns="http://www.w3.org/2000/svg">
<path d="M9.16669 10.8334H5.00002C4.76391 10.8334 4.56599 10.7535 4.40627 10.5938C4.24655 10.434 4.16669 10.2361 4.16669 10C4.16669 9.76391 4.24655 9.56599 4.40627 9.40627C4.56599 9.24655 4.76391 9.16669 5.00002 9.16669H9.16669V5.00002C9.16669 4.76391 9.24655 4.56599 9.40627 4.40627C9.56599 4.24655 9.76391 4.16669 10 4.16669C10.2361 4.16669 10.434 4.24655 10.5938 4.40627C10.7535 4.56599 10.8334 4.76391 10.8334 5.00002V9.16669H15C15.2361 9.16669 15.434 9.24655 15.5938 9.40627C15.7535 9.56599 15.8334 9.76391 15.8334 10C15.8334 10.2361 15.7535 10.434 15.5938 10.5938C15.434 10.7535 15.2361 10.8334 15 10.8334H10.8334V15C10.8334 15.2361 10.7535 15.434 10.5938 15.5938C10.434 15.7535 10.2361 15.8334 10 15.8334C9.76391 15.8334 9.56599 15.7535 9.40627 15.5938C9.24655 15.434 9.16669 15.2361 9.16669 15V10.8334Z" fill="currentColor"/>
</svg>

<svg xmlns="http://www.w3.org/2000/svg" width="20" height="20" fill="none" viewBox="0 0 20 20">
  <path fill="#201F1F" d="M9.167 10.833H5a.806.806 0 0 1-.594-.24.807.807 0 0 1-.24-.593c0-.236.08-.434.24-.594.16-.16.358-.24.594-.24h4.167V5c0-.236.08-.434.24-.594.159-.16.357-.24.593-.24s.434.08.594.24c.16.16.24.358.24.594v4.167H15c.236 0 .434.08.594.24.16.159.24.357.24.593s-.08.434-.24.594a.807.807 0 0 1-.594.24h-4.167V15c0 .236-.08.434-.24.594a.807.807 0 0 1-.593.24.806.806 0 0 1-.594-.24.807.807 0 0 1-.24-.594v-4.167Z"/>
</svg>
